X: 369
T: Mazourka No. 2	 Op. 59
C: Fryderyk Chopin
%%abc-version 2.0
%%abcx-abcm2ps-target-version 5.9.1 (29 Sep 2008)
%%abc-creator hum2abc beta
%%abcx-conversion-date 2021/10/03 11:24:05
%%abc-edited-by Zofia Trojan
%%abc-edited-by Marta Lawrence
%%abc-edited-by Mateusz Mrugas
%%abcx-initial-encoding-date 2018-06-14
%%humdrum-veritas 1966884633
%%humdrum-veritas-data 2237347995
%%linebreak <none>
%%barnumbers 0
L: 1/4
M: 3/4
N: Derived from 059-1a-ST-002.krn
P: TROIS MAZOURKAS pour le piano
Q: "Allegretto."
%%staves {1 2}
V: 1 clef=treble
V: 2 clef=bass
K: Ab
[V:1] zc3/d/ | 
[V:2] A,,,[E,A,E][E,A,E] | 
[V:1] c/B/Ac | 
[V:2] A,,[A,C_G][A,EG] | 
[V:1] de3/f/ | 
[V:2] D,[A,DF][A,DF] | 
[V:1] =d/f/ea | 
[V:2] A,,[A,CE][E,CE] | 
[V:1] zc3/{/e} d/ | 
[V:2] A,,,[E,A,C][=E,A,C] | 
[V:1] c/B/Ac | 
[V:2] A,,[F,C][F,A,E] | 
[V:1] FG3/A/ | 
[V:2] B,,[A,=D][A,D] | 
[V:1] =A/c/B/e/!accent!F | 
[V:2] E,,[E,_A,_D][E,G,D] | 
[V:1] E/ z<cd/ | 
[V:2] A,,,[E,A,C][E,A,E] | 
[V:1] c/B/Ac | 
[V:2] A,,[A,CF][A,E_G] | 
[V:1] de3/f/ | 
[V:2] D,[A,DF][A,DF] | 
[V:1] =d/f/ec' | 
[V:2] A,,[A,CE][E,CE] | 
[V:1] zc{/e} d3//c// | 
[V:2] G,,[B,C=E][B,CE] | 
[V:1] c/>B/Ac | 
[V:2] F,,[A,CF][F,A,=D] | 
[V:1] Ge3/=B/ | 
[V:2] G,,[G,CG][G,=DF] | 
[V:1] c/a/gA | 
[V:2] C,[E,CE][F,CE] | 
[V:1] Ge3/=B/ | 
[V:2] G,,[G,CG][G,=DF] | 
[V:1] c/{/b}a/gA | 
[V:2] C,[E,CE][F,CE] | 
[V:1] Ge3/=B/ | 
[V:2] G,,[G,CG][G,=DF] | 
[V:1] =d/c/c'a/f/ | 
[V:2] x[G,E]x & C,2z | 
[V:1] g/=d/e/=B/c/G/ | 
[V:2] z3 | 
[V:1] A/F/G/=D/F/=E/ | 
[V:2] z3 | 
[V:1] _E!accent![E3/c3/][F/d/] | 
[V:2] [A,,,A,,][E,A,C][E,A,C] | 
[V:1] [E/c/][D/B/][CA][_Gc] | 
[V:2] [A,,A,][E,A,E][E,A,E] | 
[V:1] [Fd][A3/e3/][d/f/] | 
[V:2] [D,,D,][A,DF][A,DF] | 
[V:1] [=B/=d/][_d/f/][ce][Aa] | 
[V:2] [A,,,A,,][E,A,CE][E,A,CE] | 
[V:1] zc3/{/e} d/ & xE=E/B/ | 
[V:2] A,,[E,A,C]G,, | 
[V:1] [=E/c/][C/B/][FA][_Ec] | 
[V:2] [C,G,B,]F,,[F,A,] | 
[V:1] FG3/A/ & E=D!accent!D | 
[V:2] [B,,,B,,][B,,F,A,][B,,F,A,] | 
[V:1] =A/c/B/e/F & =D_D!accent!D | 
[V:2] E,,[E,A,][E,G,] | 
[V:1] [D/E/] z<cd/ & xCC/F/ | 
[V:2] [A,,,A,,][E,A,E][E,/A,/E/] z/ | 
[V:1] [E/c/]>[D/B/][CA]!accent![_Gc] | 
[V:2] [A,,A,][E,A,E][E,A,E] | 
[V:1] [Fd]!accent![A3/e3/][d/f/] | 
[V:2] [D,,D,][A,DF][A,DF] | 
[V:1] [=B/=d/]>[_d/f/][ce]!accent![ac'] | 
[V:2] [A,,,A,,][E,A,CE][E,A,CEA] | 
[V:1] z[=Ec]{/e} [B3//d3//][C//c//] | 
[V:2] [G,,,G,,][G,B,C][C,G,B,=E] | 
[V:1] [A/c/]>[G/B/][FA]!accent![=Dc] | 
[V:2] [F,,,F,,][F,C][F,A,C] | 
[V:1] [EG][G3/e3/][F/=B/] | 
[V:2] [G,,G,][G,C][G,=D] | 
[V:1] [E/c/][f/a/][eg][=DA] | 
[V:2] C,[E,CE][F,C] | 
[V:1] [EG][G3/e3/][F/=B/] | 
[V:2] [G,,G,][G,C][G,=D] | 
[V:1] [E/c/]{/[bg]}[f/a/][eg][=DA] | 
[V:2] C,[E,CE][F,C] | 
[V:1] [EG][G3/e3/][F/=B/] | 
[V:2] [G,,G,][G,C][G,=D] | 
[V:1] [F/=d/][E/c/] {/c}c'a/f/ | 
[V:2] x[G,E]x & C,2z | 
[V:1] g/=d/e/=B/c/G/ | 
[V:2] z3 | 
[V:1] A/F/G/=D/E/C/ | 
[V:2] z3 | 
[V:1] {/B,}!accent!F2G/A/ | 
[V:2] D,[A,B,][A,B,]- | 
[V:1] B/c/de & =E/G/Fx | 
[V:2] [A,2B,2][A,B,]- | 
[V:1] =e/g/fc | 
[V:2] [A,B,][A,B,][A,B,] | 
[V:1] _ed3/c/ | 
[V:2] B,,[B,FA][B,FA] | 
[V:1] {/c}!accent!F2G/A/ | 
[V:2] D,[A,B,][A,B,]- | 
[V:1] B/c/de & =E/G/Fx | 
[V:2] [B,2A,2][A,B,]- | 
[V:1] =e/g/fB | 
[V:2] [A,B,][A,D][G,D] & _E,2x | 
[V:1] d!accent!c3/A/ | 
[V:2] A,,[E,A,C][=E,A,C] | 
[V:1] {/[B,F,]}!accent!F2G/A/ | 
[V:2] [D,,D,][A,B,][A,B,]- | 
[V:1] =E/G/Fx & B/c/d=d/e/ | 
[V:2] [B,2A,2][A,B,]- | 
[V:1] =e/g/fc | 
[V:2] [A,B,][A,B,][A,B,] | 
[V:1] _e/{/f}e<!accent!dc/ | 
[V:2] B,,[B,FA][B,FA] | 
[V:1] {/c}!accent!F2G/A/ | 
[V:2] D,[A,B,][A,B,]- | 
[V:1] B/c/de/=e/ & =E/G/Fe | 
[V:2] [B,2A,2][A,B,] | 
[V:1] f/g/ab/=b/ | 
[V:2] D,z[G,F] | 
[V:1] .c'/ z// c//c!accent!c | 
[V:2] .C,[G,=E][G,E] | 
[V:1] c>df/e/ | 
[V:2] .C,[A,F][A,F] | 
[V:1] z/ z// c//Gc/G/ | 
[V:2] .C,,[G,E][G,E] | 
[V:1] B>ce/d/ | 
[V:2] .C,[F,D][F,D] | 
[V:1] z/ z// c//cc- | 
[V:2] C,,[=E,G,C=E][G,E] | 
[V:1] c/d/af/B/ | 
[V:2] [A,/G/][B,/F/][A,F]C, | 
[V:1] z/ z// c//Gc/G/ | 
[V:2] C,,/ z// [G,//E//][G,E][G,E] | 
[V:1] A/B/af/F/ | 
[V:2] [F,/E/][G,/D/][F,D][C,A,] | 
[V:1] [=E/c/][E/d/][_FB][Ee] | 
[V:2] [C,/G,/][B,,/G,/][D,G,]C,/B,,/ & x2G,/D/ | 
[V:1] z[EA][FA] | 
[V:2] [E,A,,]C3/D/ | 
[V:1] [E/A/]z//.[D//A//].[CA].[E_GA] | 
[V:2] {/CD} C/>B,/A,!accent!C | 
[V:1] .[FA]z[Ad] | 
[V:2] {/D,}.DE3/F/[K:clef=treble] | 
[V:1] [A/c/]z//[=B//f//][ce].c | 
[V:2] {/EF} E/>=D/E!accent!A[K:clef=bass] & A,3 | 
[V:1] z.[EA][FA] | 
[V:2] E,!accent!C3/D/ & A,,x2 | 
[V:1] [E/A/]z//.[D//A//].[CA][EA] | 
[V:2] {/CD} C/>B,/A,[F,C] | 
[V:1] [=DA][DG][DF] | 
[V:2] F,G,3/A,/ & B,,3 | 
[V:1] [_D^F][DG][DB] | 
[V:2] =A,/C/B,/E/x & E,xF, | 
[V:1] B//E// x<cd/ & D/ z/CC/F/ | 
[V:2] [A,,/E,/] z/[E,A,E][E,/A,/E/] z/ | 
[V:1] [E/c/]z//[D//B//][CA]!accent![C_GAc] | 
[V:2] [A,,,A,,][E,A,E][E,A,E] | 
[V:1] [Fd][Fe]x/ f/ & x!accent!FF/d/ | 
[V:2] [D,,D,][A,DA][A,DA] | 
[V:1] [=B/=d/]>[_d/f/] {/[ce]}[ce][ac'] | 
[V:2] [A,,,A,,][E,A,CE][E,A,CA] | 
[V:1] xe3/__e/ & z_G2 | 
[V:2] xA,2- & A,,zC, | 
[V:1] [F/d/][_G/c/][FB][Af] | 
[V:2] A,/=A,/B,B,- & D,2=D, | 
[V:1] [G/e/][A/=d/][Gc][Bg] | 
[V:2] [B,/E,/][=B,/F,/][CE,]C/^C/ & x2=E, | 
[V:1] x2=a & [=A/f/][B/=e/][A=d]c/=B/ | 
[V:2] [F,/=D/][G,/^C/][^F,D][=F,^D] | 
[V:1] [B/^g/][^c/=g/][c^f]=f & x/ x/x_A/G/ | 
[V:2] [=E,/=E/][A,/E/][^A,E][=B,=D] | 
[V:1] [G/=e/][=A/_e/][A=d][_F_d] | 
[V:2] C/[F,/C/][^F,C][G,B,] | 
[V:1] [=E/c/][F/_c/][FB][=C__B] | 
[V:2] A,/[D,/A,/][=D,A,][E,_G,] | 
[V:1] [_C/A/][_F/A/] [E/A/] z// f//!arpeggio![_DG] | 
[V:2] [_F,/A,/][=D,/=B,/][E,C]!arpeggio![E,_B,] | 
[V:1] .[CA]e3/f/ | 
[V:2] [A,,,A,,][A,C_G][E,A,C] | 
[V:1] e/=d/_da | 
[V:2] A,,[A,DF][F,A,D] | 
[V:1] zc3/d/ | 
[V:2] A,,[=G,C=E][=E,G,C] | 
[V:1] c/B/f/e/G | 
[V:2] A,,[G,D_E][E,B,D] | 
[V:1] Ae3/f/ | 
[V:2] A,,,[A,C_G][E,A,C] | 
[V:1] e/=d/_d/b/a | 
[V:2] A,,[A,D_F][_F,A,B,] | 
[V:1] z_c3/d/ | 
[V:2] A,,[A,_CE][E,A,C] | 
[V:1] _c/B/_f/e/G | 
[V:2] E,,[E,G,D]E,, | 
[V:1] z=c3/d/ | 
[V:2] A,,[E,A,C]A,, | 
[V:1] c/B/f/e/G | 
[V:2] E,,[E,G,D]E,, | 
[V:1] z=B3/c/ | 
[V:2] =D,,[D,G,=D][G,DG] | 
[V:1] _c/B/_f/e/G- & _Fx!accent!D- | 
[V:2] [_D,G,][B,,D][E,B,]- | 
[V:1] G/A/=D/E/A/_d/ & Dx2 | 
[V:2] [A,,E,B,][E,A,C][E,A,C]- | 
[V:1] c/B/A/c/f/c/ | 
[V:2] [E,A,C][E,A,C]z | 
[V:1] e/d/c/e/a/f/ | 
[V:2] A,,,[E,A,C]z | 
[V:1] e/c'/g/a/=d/g/ | 
[V:2] zz[K:clef=treble][A,-=B,A] | 
[V:1] f/=e/_e/=d/_d/=B/ | 
[V:2] [A,CA]zz | 
[V:1] c/=B/_B/=A/_A/=E/ | 
[V:2] E/=D/_D/C/_C/B,/[K:clef=bass] | 
[V:1] G/F/_F/E/D/A,/ | 
[V:2] =A,/_A,/G,/_G,/F,/_F,/ | 
[V:1] C/E/A/c/e/a/ | 
[V:2] E,/A,,/E,/C/E/c/ | 
[V:1] .a'zz | 
[V:2] A,zz | 
[V:1] .[CA,E,].[CA,E,]z | 
[V:2] [A,,A,,,][A,,A,,,]z | 
[V:1] .[CA,E,].[CA,E,]z |]  
[V:2] [A,,,A,,][A,,,A,,]z |]
